!!!OTL: Das Schloss im Oberland (Falkenstein)
!!!ARE: Europa, Mitteleuropa, Deutschland
!!!SCT: A0028
!!!YEM: Copyright 1995, estate of Helmut Schaffrath.
**kern
*ICvox
*Ivox
!! Mixed meters:  4/2; 7/2
*M7/2
*k[b-]
*F:
{2f
=1
2f
2g
2a
2b-
=2
2cc
2cc
2f}
{2g
=3
2a
2dd
2cc
2f
=4
2.f
8e
8d
2e
2f
=5
2d
2c
2r}
{2cc
=6
2cc
2cc
2cc
2b-
=7
2b-
2a
2g}
{2dd
=8
2cc
2g
2a
2f
=9
2e
2f
2g
2a
4g
4f
1g
=10
1f
2r}
==
!!!AGN: Romanze, Ballade, Lied
!! Die Melodie bei Joh. Ott 1544 No. 8. Sie ist nur eine
!!    Variante von: Es ligt ein schloss in Oesterreich.
!!!ONB: ESAC (Essen Associative Code) Database: ALTDEU
!!!AMT: irregular
!!!AIN: vox
!!!EED: Helmut Schaffrath
!!!EEV: 1.0
*-
